X: 117
T:O can ye labor lea, young man
S:SMM #394, 1792
Q:120
L:1/8
M:C|
Z:Bruce Olson
K:F
C|F/ F3/2 F A G3/2 F/ G3/2 A/|F/ F3/2 F3/2 A/d3f|\
F3/2 F/ F A G3/2 F/ G3/2 A/|F3/2 D/ DCF3||\
d|c/ A3/2 A3/2 F/ G3/2 F/ G3/2 A/|(c/A3/2) A/ c3/2 d3f|\
c3/2 A/ A3/2 F/ G3/2 F/ G3/2 A/|F/ D3/2 D3/2 C/{C/}F3||\
"Chorus"C|F/ F3/2 F A G3/2 F/ G3/2 A/|F/ F3/2 F3/2  A/ d2 f|\
F3/2 F/ F A G3/2 F/ G3/2 A/|F/ D DC F3|]

